src/assets/outline/Sort.svg

<?xml version="1.0" encoding="UTF-8"?>
<svg width="24" height="24" viewBox="0 0 24 24" xmlns="http://www.w3.org/2000/svg">
 <path d="m21 7.75h-18c-0.41 0-0.75-0.34-0.75-0.75s0.34-0.75 0.75-0.75h18c0.41 0 0.75 0.34 0.75 0.75s-0.34 0.75-0.75 0.75z"/>
 <path d="m18 12.75h-12c-0.41 0-0.75-0.34-0.75-0.75s0.34-0.75 0.75-0.75h12c0.41 0 0.75 0.34 0.75 0.75s-0.34 0.75-0.75 0.75z"/>
 <path d="m14 17.75h-4c-0.41 0-0.75-0.34-0.75-0.75s0.34-0.75 0.75-0.75h4c0.41 0 0.75 0.34 0.75 0.75s-0.34 0.75-0.75 0.75z"/>
</svg>

<svg width="24" height="24" viewBox="0 0 24 24"  xmlns="http://www.w3.org/2000/svg">
<path d="M21 7.75H3C2.59 7.75 2.25 7.41 2.25 7C2.25 6.59 2.59 6.25 3 6.25H21C21.41 6.25 21.75 6.59 21.75 7C21.75 7.41 21.41 7.75 21 7.75Z" />
<path d="M18 12.75H6C5.59 12.75 5.25 12.41 5.25 12C5.25 11.59 5.59 11.25 6 11.25H18C18.41 11.25 18.75 11.59 18.75 12C18.75 12.41 18.41 12.75 18 12.75Z" />
<path d="M14 17.75H10C9.59 17.75 9.25 17.41 9.25 17C9.25 16.59 9.59 16.25 10 16.25H14C14.41 16.25 14.75 16.59 14.75 17C14.75 17.41 14.41 17.75 14 17.75Z" />
</svg>
